views/1/public/assets/mainLogo.svg

<svg fill="none" height="30" viewBox="0 0 130 30" width="130" xmlns="http://www.w3.org/2000/svg"><path clip-rule="evenodd" d="m81.073 14.1955c-.0046-.0639-.0069-.1226-.0069-.1761v-13.505584c.0059-.285461.246-.51387307.5401-.51381599h3.1274c.2983 0 .5401.23473799.5401.52430199v7.215208c1.1006-.56532 2.3554-.88545 3.6872-.88545 4.3581.00482 7.8898 3.43304 7.8948 7.66354 0 4.2325-3.5346 7.6636-7.8948 7.6636s-7.8948-3.4311-7.8948-7.6636c0-.1079.0023-.2153.0069-.3221zm4.1485.3239c0 2.0047 1.6742 3.6299 3.7394 3.6299 2.064-.0029 3.7365-1.6264 3.7395-3.6299 0-2.0048-1.6742-3.63-3.7395-3.63-2.0652 0-3.7394 1.6252-3.7394 3.63zm-34.9827 2.6941c-.1882-.3436-.6065-.5024-.9849-.374-.2812.1126-.4892.2178-.695.3219h-.0001c-.3054.1545-.606.3066-1.1341.4768-1.5421.4924-3.2353-.0373-4.1911-1.311-.9557-1.2738-.9557-3.0006 0-4.2744.9558-1.2737 2.649-1.8034 4.1911-1.311.5203.1677.8198.3196 1.1206.4722.2103.1066.4212.2136.7086.3265.3771.1292.7949-.0272.9849-.3687.3995-.6722.8245-1.38914 1.0481-1.7663l.1257-.2121c.1746-.3185.1-.71175-.18-.94899-1.3371-1.05434-2.9919-1.65685-4.7135-1.71622h-.2664c-4.3607 0-7.8957 3.43148-7.8957 7.66441 0 4.233 3.535 7.6644 7.8957 7.6644h.2772c1.7146-.063 3.3617-.6646 4.6937-1.7144.28-.2373.3546-.6305.18-.949-.1044-.1844-.4751-.8121-.8741-1.4877l-.0004-.0007-.0008-.0014zm9.8221-10.5106h1.3143c.1883.00287.3387.15283.3367.33555v3.42015c0 .183-.1517.3319-.3403.3339h-1.3107c-1.3576.0076-2.456 1.0746-2.4629 2.3925v7.7073c0 .2895-.2418.5243-.5401.5243h-3.1381c-.2942 0-.5343-.2284-.5402-.5139v-7.7107c.003-3.58127 2.992-6.48429 6.6813-6.4891zm13.7479 14.709c-.028.0074-.057.0114-.0865.0117h-3.1147c-3.6935-.0029-6.6859-2.9108-6.6849-6.4961v-7.71079c.0059-.28546.246-.51387.5401-.51381h3.1327c.2983 0 .5402.23473.5402.5243v7.7072c.0029 1.3248 1.109 2.3977 2.4737 2.3996h3.1111c.0306.0003.0602.0045.0883.012v-10.1188c0-.28957.2418-.5243.5401-.5243h3.1327c.2942-.00006.5343.22835.5402.51381v16.28719c.0009 3.5854-2.9914 6.4932-6.685 6.4961h-1.3143c-.091-.0009-.1779-.037-.2414-.1003-.0636-.0634-.0985-.1486-.097-.237v-3.4185c-.0001-.1829.1517-.3318.3402-.3338h1.3107c1.3647-.0019 2.4708-1.0748 2.4738-2.3995zm56.0322-2.4991-4.835-4.6929 4.835-4.69288.002-.00208c.21-.20647.209-.54029-.002-.74561l-2.162-2.09877c-.211-.20452-.551-.20452-.762 0l-4.839 4.69704-4.839-4.69704c-.21-.20452-.551-.20452-.761 0l-2.162 2.09877c-.212.20532-.213.53914-.003.74561l.003.00208 4.834 4.69288-4.834 4.6929-.003.0021c-.21.2065-.209.5403.003.7456l2.162 2.0988c.21.2045.551.2045.761 0l4.839-4.6971 4.839 4.6971c.211.2045.551.2045.762 0l2.162-2.0988c.211-.2053.212-.5391.002-.7456zm-24.419-12.38461c4.361 0 7.346 3.30486 7.348 7.52201-.005.313-.025.6257-.062.9367-.049.3741-.373.6569-.761.6659h-9.449c.418 1.1989 1.469 2.1601 2.938 2.1601.398.003.794-.0561 1.173-.1747.528-.1702.828-.3223 1.134-.4768.205-.1041.413-.2093.695-.3219.375-.1184.784.0423.968.381.303.5081.62 1.044.854 1.4379l.004.007c.149.2516.263.4443.316.5334.175.3185.1.7118-.18.949-1.333 1.0479-2.98 1.6477-4.693 1.7092h-.285c-4.348 0-7.4716-3.4394-7.4716-7.6653 0-4.22583 3.1236-7.66351 7.4716-7.66351zm-3.016 6.20601h5.902c-.36-1.3492-1.3-2.1724-2.881-2.1724-1.58 0-2.661.8249-3.021 2.1724zm-80.2893-12.73419999h-14.74447c-4.07157 0-7.37223 3.23990999-7.37223 7.23653999v14.31216c0 3.9966 3.30066 7.2365 7.37223 7.2365h14.74447c4.0716 0 7.3722-3.2399 7.3722-7.2365v-14.31216c0-3.99663-3.3006-7.23653999-7.3722-7.23653999zm-4.5426 17.36059999v-.0001c.2058-.1041.4138-.2093.6951-.3219.3784-.1284.7966.0305.9848.374l.2887.4888c.3998.677.7716 1.3066.8762 1.4913.1745.3185.0999.7118-.18.949-1.332 1.0498-2.9792 1.6515-4.6937 1.7145h-.2773c-4.3607 0-7.89567-3.4315-7.89567-7.6645 0-4.2329 3.53497-7.66438 7.89567-7.66438h.2665c1.7216.05937 3.3763.66187 4.7135 1.71621.2799.23725.3545.6305.18.94899l-.1248.21051-.0011.0019-.0017.00289c-.2241.378-.6478 1.09288-1.0463 1.76308-.1899.3415-.6078.498-.9848.3688-.2874-.113-.4984-.2199-.7087-.3266-.3008-.1526-.6003-.3045-1.1205-.4721-1.5421-.4924-3.2353.0372-4.1911 1.311-.9558 1.2737-.9558 3.0005 0 4.2743.9558 1.2737 2.649 1.8034 4.1911 1.311.528-.1702.8287-.3223 1.1341-.4767zm4.5184-2.9711c0 .8968-.7448 1.6238-1.6636 1.6238s-1.6636-.727-1.6636-1.6238c0-.8969.7448-1.6239 1.6636-1.6239s1.6636.727 1.6636 1.6239z" fill="#ececf1" fill-rule="evenodd"/></svg>

<?xml version="1.0" encoding="UTF-8"?> <svg xmlns="http://www.w3.org/2000/svg" width="130" height="30" viewBox="0 0 130 30" fill="none"><path fill-rule="evenodd" clip-rule="evenodd" d="M81.073 14.1955C81.0684 14.1316 81.0661 14.0729 81.0661 14.0194V0.513816C81.072 0.228355 81.3121 -5.70712e-05 81.6062 1.06965e-08H84.7336C85.0319 1.06965e-08 85.2737 0.234738 85.2737 0.524302V7.73951C86.3743 7.17419 87.6291 6.85406 88.9609 6.85406C93.319 6.85888 96.8507 10.2871 96.8557 14.5176C96.8557 18.7501 93.3211 22.1812 88.9609 22.1812C84.6007 22.1812 81.0661 18.7501 81.0661 14.5176C81.0661 14.4097 81.0684 14.3023 81.073 14.1955ZM85.2215 14.5194C85.2215 16.5241 86.8957 18.1493 88.9609 18.1493C91.0249 18.1464 92.6974 16.5229 92.7004 14.5194C92.7004 12.5146 91.0262 10.8894 88.9609 10.8894C86.8957 10.8894 85.2215 12.5146 85.2215 14.5194ZM50.2388 17.2135C50.0506 16.8699 49.6323 16.7111 49.2539 16.8395C48.9727 16.9521 48.7647 17.0573 48.5589 17.1614L48.5588 17.1614C48.2534 17.3159 47.9528 17.468 47.4247 17.6382C45.8826 18.1306 44.1894 17.6009 43.2336 16.3272C42.2779 15.0534 42.2779 13.3266 43.2336 12.0528C44.1894 10.7791 45.8826 10.2494 47.4247 10.7418C47.945 10.9095 48.2445 11.0614 48.5453 11.214C48.7556 11.3206 48.9665 11.4276 49.2539 11.5405C49.631 11.6697 50.0488 11.5133 50.2388 11.1718C50.6383 10.4996 51.0633 9.78266 51.2869 9.4055L51.4126 9.1934C51.5872 8.8749 51.5126 8.48165 51.2326 8.24441C49.8955 7.19007 48.2407 6.58756 46.5191 6.52819H46.2527C41.892 6.52819 38.357 9.95967 38.357 14.1926C38.357 18.4256 41.892 21.857 46.2527 21.857H46.5299C48.2445 21.794 49.8916 21.1924 51.2236 20.1426C51.5036 19.9053 51.5782 19.5121 51.4036 19.1936C51.2992 19.0092 50.9285 18.3815 50.5295 17.7059L50.5291 17.7052L50.5283 17.7038L50.2388 17.2135ZM60.0609 6.7029H61.3752C61.5635 6.70577 61.7139 6.85573 61.7119 7.03845V10.4586C61.7119 10.6416 61.5602 10.7905 61.3716 10.7925H60.0609C58.7033 10.8001 57.6049 11.8671 57.598 13.185V20.8923C57.598 21.1818 57.3562 21.4166 57.0579 21.4166H53.9198C53.6256 21.4166 53.3855 21.1882 53.3796 20.9027V13.192C53.3826 9.61073 56.3716 6.70771 60.0609 6.7029ZM73.8088 21.4119C73.7808 21.4193 73.7518 21.4233 73.7223 21.4236H70.6076C66.9141 21.4207 63.9217 18.5128 63.9227 14.9275V7.21671C63.9286 6.93125 64.1687 6.70284 64.4628 6.7029H67.5955C67.8938 6.7029 68.1357 6.93763 68.1357 7.2272V14.9344C68.1386 16.2592 69.2447 17.3321 70.6094 17.334H73.7205C73.7511 17.3343 73.7807 17.3385 73.8088 17.346V7.2272C73.8088 6.93763 74.0506 6.7029 74.3489 6.7029H77.4816C77.7758 6.70284 78.0159 6.93125 78.0218 7.21671V23.5039C78.0227 27.0893 75.0304 29.9971 71.3368 30H70.0225C69.9315 29.9991 69.8446 29.963 69.7811 29.8997C69.7175 29.8363 69.6826 29.7511 69.6841 29.6627V26.2442C69.684 26.0613 69.8358 25.9124 70.0243 25.9104H71.335C72.6997 25.9085 73.8058 24.8356 73.8088 23.5109V21.4119ZM129.841 18.9128L125.006 14.2199L129.841 9.52702L129.843 9.52494C130.053 9.31847 130.052 8.98465 129.841 8.77933L127.679 6.68056C127.468 6.47604 127.128 6.47604 126.917 6.68056L122.078 11.3776L117.239 6.68056C117.029 6.47604 116.688 6.47604 116.478 6.68056L114.316 8.77933C114.104 8.98465 114.103 9.31847 114.313 9.52494L114.316 9.52702L119.15 14.2199L114.316 18.9128L114.313 18.9149C114.103 19.1214 114.104 19.4552 114.316 19.6605L116.478 21.7593C116.688 21.9638 117.029 21.9638 117.239 21.7593L122.078 17.0622L126.917 21.7593C127.128 21.9638 127.468 21.9638 127.679 21.7593L129.841 19.6605C130.052 19.4552 130.053 19.1214 129.843 18.9149L129.841 18.9128ZM105.422 6.52819C109.783 6.52819 112.768 9.83305 112.77 14.0502C112.765 14.3632 112.745 14.6759 112.708 14.9869C112.659 15.361 112.335 15.6438 111.947 15.6528H102.498C102.916 16.8517 103.967 17.8129 105.436 17.8129C105.834 17.8159 106.23 17.7568 106.609 17.6382C107.137 17.468 107.437 17.3159 107.743 17.1614C107.948 17.0573 108.156 16.9521 108.438 16.8395C108.813 16.7211 109.222 16.8818 109.406 17.2205C109.709 17.7286 110.026 18.2645 110.26 18.6584L110.264 18.6654C110.413 18.917 110.527 19.1097 110.58 19.1988C110.755 19.5173 110.68 19.9106 110.4 20.1478C109.067 21.1957 107.42 21.7955 105.707 21.857H105.422C101.074 21.857 97.9504 18.4176 97.9504 14.1917C97.9504 9.96587 101.074 6.52819 105.422 6.52819ZM102.406 12.7342H108.308C107.948 11.385 107.008 10.5618 105.427 10.5618C103.847 10.5618 102.766 11.3867 102.406 12.7342ZM22.1167 1.06965e-08H7.37223C3.30066 1.06965e-08 0 3.23991 0 7.23654V21.5487C0 25.5453 3.30066 28.7852 7.37223 28.7852H22.1167C26.1883 28.7852 29.4889 25.5453 29.4889 21.5487V7.23654C29.4889 3.23991 26.1883 1.06965e-08 22.1167 1.06965e-08ZM17.5741 17.3606L17.5741 17.3605C17.7799 17.2564 17.9879 17.1512 18.2692 17.0386C18.6476 16.9102 19.0658 17.0691 19.254 17.4126L19.5427 17.9014C19.9425 18.5784 20.3143 19.208 20.4189 19.3927C20.5934 19.7112 20.5188 20.1045 20.2389 20.3417C18.9069 21.3915 17.2597 21.9932 15.5452 22.0562H15.2679C10.9072 22.0562 7.37223 18.6247 7.37223 14.3917C7.37223 10.1588 10.9072 6.72732 15.2679 6.72732H15.5344C17.256 6.78669 18.9107 7.38919 20.2479 8.44353C20.5278 8.68078 20.6024 9.07403 20.4279 9.39252L20.3031 9.60303L20.302 9.60493L20.3003 9.60782C20.0762 9.98582 19.6525 10.7007 19.254 11.3709C19.0641 11.7124 18.6462 11.8689 18.2692 11.7397C17.9818 11.6267 17.7708 11.5198 17.5605 11.4131C17.2597 11.2605 16.9602 11.1086 16.44 10.941C14.8979 10.4486 13.2047 10.9782 12.2489 12.252C11.2931 13.5257 11.2931 15.2525 12.2489 16.5263C13.2047 17.8 14.8979 18.3297 16.44 17.8373C16.968 17.6671 17.2687 17.515 17.5741 17.3606ZM22.0925 14.3895C22.0925 15.2863 21.3477 16.0133 20.4289 16.0133C19.5101 16.0133 18.7653 15.2863 18.7653 14.3895C18.7653 13.4926 19.5101 12.7656 20.4289 12.7656C21.3477 12.7656 22.0925 13.4926 22.0925 14.3895Z" fill="#ECECF1"></path></svg>
